X:1
T:Title
%%score { ( 1 3 5 ) | ( 2 4 ) }
L:1/8
M:4/4
K:G
V:1 treble nm="Grand Piano"
V:3 treble 
V:5 treble 
V:2 bass 
V:4 bass 
V:1
 z4 z2[Q:1/4=100] GA | B2 B>B B2 cB | B2 A4 FG | [CFA]2 [CFA]>[CFA] [CA]c [DFB]>[CFA] | G6 GA | %5
 B2 B>B B2 cB | [GB]2 [FA]4 [FA][Fd] | ^c2 c>d [Ge]2 [Fd]>[Ec] |[M:7/8] d2- [Gd-]2 [Ad]3 | %9
[M:1/4] e>d |[M:4/4] c6 d2 | B2- [DB-][DB-] [DB]2 c>B | A6 z2 | B2- [DB-][DB-] [DB]2 B>c | %14
 d6[K:bass][K:treble] z2 | [Ge]6 z2 | [GB]2 [GB][GB] [FB]3 [FA] |[M:3/4] [B,G]6 |] %18
V:2
 z4 z2 [G,B,][G,C] | [G,D]2 [G,D]>[G,D] [G,D]2 [G,E][G,D] | [D,G,D]2 [D,F,D]4 [D,A,D][D,B,D] | %3
 D,2 D,>D, z E D,>D, | [G,B,]6 [G,B,][K:treble][G,CG] | %5
 [G,DG]2 [G,DG]>[G,DG] [G,DG]2 [G,EG][G,DG] | [D,D]2 [D,D]4 [D,D][D,A,] | %7
 [A,E]2[K:treble] [A,E]>[A,F][K:bass] [A,,A,]2 [A,,A,]>[A,,A,] |[M:7/8] A,2 B,2 C3 |[M:1/4] C>B, | %10
[M:4/4] A,6 B,2 | G,6 z2 | F,6 z2 | G,6[K:treble] z2 | B6[K:bass] [E,G,]>[D,B,] | %15
 [C,C]2 C,>C, C,2 C,C, | [D,D]2 [D,D][D,D] [D,D]3 [D,C] |[M:3/4] [G,,G,]6 |] %18
V:3
 x8 | x8 | x8 | z4 F2 z2 | x8 | x8 | x8 | x8 |[M:7/8] F2 z z z z2 |[M:1/4] x2 | %10
[M:4/4] z2 F2 F2 F->[Fc] | G2 z2 z4 | z2 D2 D[GB] [Gd]>[Fc] | G2 z2 z4 | %14
 z2[K:bass] G,>G, z =F,[K:treble] [Gc]>[Gd] | z2 C>C C2 [EAc][EAc] | x8 |[M:3/4] x6 |] %18
V:4
 x8 | x8 | x8 | z4 D,2 z2 | x7[K:treble] x | x8 | x8 | x2[K:treble] x2[K:bass] x4 | %8
[M:7/8] D,-D,-D,- D,- D,3 |[M:1/4] x2 |[M:4/4] z2 D,2 D,2 D,->[D,A,] | G,,2 G,,G,, G,,2 A,>G, | %12
 z2 D,2 D,[D,G,] [D,B,]>[D,A,] | G,,2 G,,G,, G,,2[K:treble] G>A | x6[K:bass] x2 | x8 | x8 | %17
[M:3/4] x6 |] %18
V:5
 x8 | x8 | x8 | x8 | x8 | x8 | x8 | x8 |[M:7/8] x7 |[M:1/4] x2 |[M:4/4] x8 | x8 | x8 | x8 | %14
 z4[K:bass] G,2[K:treble] z2 | x8 | x8 |[M:3/4] x6 |] %18

